X: 119005
T: GREEN GROW THE RASHES
Q: "Highland Schottische."
R: Schottische.
%R: shottish
B: James Kerr "Merry Melodies" v.1 p.19 s.0 #5
Z: 2017 John Chambers <jc:trillian.mit.edu>
M: C
L: 1/8
K: G
|:\
vG2 B>uA B<G G>uB | A<e e>d e<A A>B |\
vc>vdue>uc B>cd>B | A>cB>A (G<E)E2 ::\
vG2 ug>uf g<d d>ug | (e<a) a>u^g a<e e>uf |\
g>a g<e d<B G>B | A>cB>A (G<E)E2 :|

%%sep 1 1 500
%%sep 1 1 500

